X: 1
T: Peter Lee's
M: 6/8
L: 1/8
R: jig
K: Dmix
ABG A2B|cAG EGD|EGG AGG|EGG E2G|
ABG A2B|cAG E2B|cAA ABG|1FDD DEG:|2FDD D2e||
fdd edd|fdd d2e|fdd efd|cAF A2e|
fdd edd|fdd d2A|BdB BdB|1AFD D2e:|2AFD DEG||
